X:260
T: Killoran's [b]
T: Polca Mhic Giolla Luairinn (2)
S: B.Breathnach:"Ceol Rince na hEireann" III/79
Z: B.Black
L: 1/8
M: 2/4
Q: 275
R: polka
K: G
dB B/A/B/c/|d^c d/c/d/g/|f/e/d/B/ A/F/D/F/|G>F E>F|
DB B/A/B/c/|dc d/c/d|f/e/d/B/ A/F/D/F/|AG/F/ G2 :|
g/d/B/d/ g>a|fe e/d/e/g/|f/d/A/d/ f>d|ed d/c/d|
g/d/B/d/ g>a|fe e/d/e|df/e/ d/c/d/B/|c/A/F/D/ G2 :|
